app/assets/images/payment_icons/rupay.svg

<?xml version="1.0" encoding="UTF-8"?>
<svg width="38px" height="24px" viewBox="0 0 38 24" version="1.1" xmlns="http://www.w3.org/2000/svg" xmlns:xlink="http://www.w3.org/1999/xlink">
    <!-- Generator: Sketch 40.1 (33804) - http://www.bohemiancoding.com/sketch -->
    <title>Artboard</title>
    <desc>Created with Sketch.</desc>
    <defs></defs>
    <g id="Page-1" stroke="none" stroke-width="1" fill="none" fill-rule="evenodd">
        <g id="Artboard">
            <g id="rupay">
                <rect id="Rectangle-path" stroke-opacity="0.07" stroke="#000000" fill="#FFFFFF" x="0.5" y="0.5" width="37" height="23" rx="3"></rect>
                <g id="g6161-4" transform="translate(30.000000, 8.000000)">
                    <polygon id="path6141-55" fill="#097A44" points="2 7.77 4 0.36 6 4.18"></polygon>
                    <polygon id="path6141-5-1" fill="#F46F20" points="0.76 7.79 2.76 0.39 4.76 4.21"></polygon>
                </g>
                <path d="M20.67,8.2 C20.2554598,7.79650697 19.6865172,7.59227117 19.11,7.64 L16.11,7.64 L14.16,14.45 L15.91,14.45 L16.57,12.14 L17.8,12.14 C18.4687372,12.1639375 19.1296695,11.9900079 19.7,11.64 C20.2685048,11.2204601 20.6662611,10.6096201 20.82,9.92 C21.0719765,9.35950235 21.015196,8.70841865 20.67,8.2 L20.67,8.2 Z M17.46,9.14 L18.58,9.14 C18.7758516,9.11674054 18.973075,9.17052873 19.13,9.29 C19.24,9.4 19.2,9.64 19.13,9.82 C19.0735854,10.067216 18.9319832,10.2866993 18.73,10.44 C18.52273,10.5769442 18.2783318,10.6467723 18.03,10.64 L17,10.64 L17.46,9.14 Z" id="Shape" fill="#302F82"></path>
                <path d="M9.14,9 C9.11416854,8.78547688 9.04619998,8.57817279 8.94,8.39 L8.94,8.39 C8.80595816,8.15774082 8.60336994,7.9726171 8.36,7.86 C8.01570423,7.72821607 7.64842592,7.66700302 7.28,7.68 L4,7.68 L2,14.43 L3.73,14.43 L4.45,11.91 L5.7,11.91 C6.17,11.91 6.28,12.01 6.3,12.04 C6.32,12.07 6.39,12.19 6.3,12.69 L6.14,13.29 C6.08575487,13.4829795 6.0489405,13.6804383 6.03,13.88 L6.03,14.43 L7.82,14.43 L7.94,14 L7.83,13.92 C7.83,13.92 7.76,13.87 7.77,13.72 C7.79739873,13.5299891 7.8408884,13.342649 7.9,13.16 L8,12.74 C8.1307859,12.3853264 8.16528935,12.002338 8.1,11.63 C8.05349264,11.4716574 7.96339694,11.3295834 7.84,11.22 C8.10347787,11.0919714 8.33561505,10.9076271 8.52,10.68 C8.76313,10.3863761 8.94350728,10.0460416 9.05,9.68 C9.12078859,9.46062151 9.15128019,9.23024053 9.14,9 L9.14,9 Z M7.28,9.83 C7.22209957,10.1000333 7.03516546,10.3243542 6.78,10.43 C6.57389453,10.4985836 6.35702699,10.5290806 6.14,10.52 L4.86,10.52 L5.24,9.19 L6.67,9.19 C6.8513912,9.17570398 7.03349592,9.20662742 7.2,9.28 C7.25,9.28 7.41,9.35 7.28,9.78 L7.28,9.83 Z" id="Shape" fill="#302F82"></path>
                <path d="M12.18,12 C12.119917,12.239147 12.0183806,12.4659116 11.88,12.67 C11.6836456,12.9538753 11.3547761,13.11642 11.01,13.1 L11.01,13.1 C10.67,13.1 10.65,12.96 10.63,12.9 C10.6159745,12.7236579 10.6398421,12.5463559 10.7,12.38 L11.59,9.27 L9.9,9.27 L9.04,12.27 C8.89198108,12.693261 8.84072446,13.1443192 8.89,13.59 C8.97,14.01 9.29,14.5 10.3,14.5 L10.3,14.5 C10.5469924,14.5038109 10.7931315,14.4700932 11.03,14.4 C11.2420006,14.3304312 11.4437786,14.2329051 11.63,14.11 L11.55,14.41 L13.17,14.41 L14.64,9.28 L13,9.28 L12.18,12 Z" id="Shape" fill="#302F82"></path>
                <path d="M25.11,13.1 L25.74,10.92 C25.98,10.09 25.67,9.71 25.37,9.53 C24.9497466,9.30287611 24.4775775,9.18914196 24,9.2 L24,9.2 C23.2711265,9.16415356 22.55597,9.40730678 22,9.88 C21.6854898,10.1863303 21.4488947,10.5635109 21.31,10.98 L21.22,11.24 L22.83,11.24 L22.83,11.13 C22.8883579,10.9915169 22.9732921,10.8658142 23.08,10.76 C23.2402532,10.638037 23.4389902,10.5777061 23.64,10.59 L23.64,10.59 C23.7977205,10.5752545 23.9565185,10.6028716 24.1,10.67 L24.1,10.85 C24.1,10.91 24.1,11 23.85,11.08 C23.6943827,11.1316988 23.5333159,11.1652544 23.37,11.18 L22.93,11.23 C22.4987615,11.2683173 22.0766035,11.3763897 21.68,11.55 C21.1105564,11.8212199 20.6897608,12.3298339 20.53,12.94 C20.3684551,13.3482986 20.4329882,13.8114184 20.7,14.16 C20.988863,14.4666072 21.3996838,14.6280011 21.82,14.6 L21.82,14.6 C22.1910766,14.5994578 22.5571001,14.5139383 22.89,14.35 L23.29,14.12 L23.29,14.45 L25,14.45 L25.13,13.97 L25,13.9 L25,13.9 C24.9866667,13.8272727 24.9866667,13.7527273 25,13.68 C25,13.43 25.07,13.25 25.11,13.1 L25.11,13.1 Z M22.19,13 C22.238507,12.8228963 22.3630243,12.6764053 22.53,12.6 C22.7122937,12.5243091 22.9040623,12.4738437 23.1,12.45 L23.39,12.4 L23.69,12.33 L23.69,12.4 C23.6208086,12.7054324 23.4386096,12.973372 23.18,13.15 C22.9627623,13.2823683 22.714336,13.354826 22.46,13.36 L22.46,13.36 C22.3693176,13.3678729 22.2792651,13.3390561 22.21,13.28 C22.1792265,13.1899677 22.1723354,13.0934921 22.19,13 L22.19,13 Z" id="Shape" fill="#302F82"></path>
                <path d="M30.1,9.32 L28.41,12.32 L28.41,9.32 L26.61,9.32 L27,14.45 L26.88,14.64 C26.8221144,14.7388377 26.7436797,14.8240928 26.65,14.89 C26.5761199,14.9323699 26.4945261,14.9595679 26.41,14.97 L25.73,14.97 L25.34,16.34 L26.17,16.34 C26.6262396,16.377644 27.0815847,16.2576305 27.46,16 C27.9457739,15.479141 28.3717561,14.9055743 28.73,14.29 L31.9,9.29 L30.1,9.32 Z" id="Shape" fill="#302F82"></path>
            </g>
        </g>
    </g>
</svg>

<svg width="38" height="24" viewBox="0 0 38 24" xmlns="http://www.w3.org/2000/svg"><title>Artboard</title><g fill="none" fill-rule="evenodd"><rect stroke-opacity=".07" stroke="#000" fill="#FFF" x=".5" y=".5" width="37" height="23" rx="3"/><path fill="#097A44" d="M32 15.77l2-7.41 2 3.82z"/><path fill="#F46F20" d="M30.76 15.79l2-7.4 2 3.82z"/><path d="M20.67 8.2a2 2 0 0 0-1.56-.56h-3l-1.95 6.81h1.75l.66-2.31h1.23a3.4 3.4 0 0 0 1.9-.5 2.93 2.93 0 0 0 1.12-1.72 1.77 1.77 0 0 0-.15-1.72zm-3.21.94h1.12a.76.76 0 0 1 .55.15c.11.11.07.35 0 .53a1.08 1.08 0 0 1-.4.62 1.21 1.21 0 0 1-.7.2H17l.46-1.5zM9.14 9a1.64 1.64 0 0 0-.2-.61 1.3 1.3 0 0 0-.58-.53 2.75 2.75 0 0 0-1.08-.18H4l-2 6.75h1.73l.72-2.52H5.7c.47 0 .58.1.6.13.02.03.09.15 0 .65l-.16.6a3.35 3.35 0 0 0-.11.59v.55h1.79l.12-.43-.11-.08s-.07-.05-.06-.2c.027-.19.07-.377.13-.56l.1-.42a2.14 2.14 0 0 0 .1-1.11.88.88 0 0 0-.26-.41 2 2 0 0 0 .68-.54 2.79 2.79 0 0 0 .53-1c.07-.22.101-.45.09-.68zm-1.86.83a.84.84 0 0 1-.5.6 1.79 1.79 0 0 1-.64.09H4.86l.38-1.33h1.43a1.1 1.1 0 0 1 .53.09c.05 0 .21.07.08.5v.05zM12.18 12a2.11 2.11 0 0 1-.3.67 1 1 0 0 1-.87.43c-.34 0-.36-.14-.38-.2a1.24 1.24 0 0 1 .07-.52l.89-3.11H9.9l-.86 3a3 3 0 0 0-.15 1.32c.08.42.4.91 1.41.91.247.004.493-.03.73-.1a2.51 2.51 0 0 0 .6-.29l-.08.3h1.62l1.47-5.13H13L12.18 12zM25.11 13.1l.63-2.18c.24-.83-.07-1.21-.37-1.39A2.75 2.75 0 0 0 24 9.2a2.87 2.87 0 0 0-2 .68 2.75 2.75 0 0 0-.69 1.1l-.09.26h1.61v-.11a1.15 1.15 0 0 1 .25-.37.84.84 0 0 1 .56-.17.89.89 0 0 1 .46.08v.18c0 .06 0 .15-.25.23a2.13 2.13 0 0 1-.48.1l-.44.05a4 4 0 0 0-1.25.32c-.57.271-.99.78-1.15 1.39a1.25 1.25 0 0 0 .17 1.22c.289.307.7.468 1.12.44a2.43 2.43 0 0 0 1.07-.25l.4-.23v.33H25l.13-.48-.13-.07a.61.61 0 0 1 0-.22c0-.25.07-.43.11-.58zm-2.92-.1a.62.62 0 0 1 .34-.4 2.17 2.17 0 0 1 .57-.15l.29-.05.3-.07v.07a1.24 1.24 0 0 1-.51.75 1.44 1.44 0 0 1-.72.21.34.34 0 0 1-.25-.08.55.55 0 0 1-.02-.28zM30.1 9.32l-1.69 3v-3h-1.8l.39 5.13-.12.19a.8.8 0 0 1-.23.25.64.64 0 0 1-.24.08h-.68l-.39 1.37h.83a2 2 0 0 0 1.29-.34 9.55 9.55 0 0 0 1.27-1.71l3.17-5-1.8.03z" fill="#302F82"/></g></svg>
